lib/flags/s/SXM.svg

<svg xmlns="http://www.w3.org/2000/svg" fill="none" viewBox="0 0 16 12"><mask id="SXM_svg__a" width="16" height="12" x="0" y="0" mask-type="alpha" maskUnits="userSpaceOnUse"><path fill="#fff" d="M0 0H16V12H0z"/></mask><g mask="url(#SXM_svg__a)"><path fill="#E31D1C" fill-rule="evenodd" d="M0 0V12H16V0H0Z" clip-rule="evenodd"/><mask id="SXM_svg__b" width="16" height="12" x="0" y="0" mask-type="alpha" maskUnits="userSpaceOnUse"><path fill="#fff" fill-rule="evenodd" d="M0 0V12H16V0H0Z" clip-rule="evenodd"/></mask><g mask="url(#SXM_svg__b)"><path fill="#2E42A5" fill-rule="evenodd" d="M0 6V12H16V6H0Z" clip-rule="evenodd"/></g><path fill="#F7FCFF" fill-rule="evenodd" d="M0 -1V13L10 6L0 -1Z" clip-rule="evenodd"/><mask id="SXM_svg__c" width="10" height="14" x="0" y="-1" mask-type="alpha" maskUnits="userSpaceOnUse"><path fill="#fff" fill-rule="evenodd" d="M0 -1V13L10 6L0 -1Z" clip-rule="evenodd"/></mask><g mask="url(#SXM_svg__c)"><path fill="#FBCD17" fill-rule="evenodd" d="M4.06294 4.59441C4.78129 4.59441 5.36364 4.23749 5.36364 3.7972C5.36364 3.35692 4.78129 3 4.06294 3C3.34458 3 2.76224 3.35692 2.76224 3.7972C2.76224 4.23749 3.34458 4.59441 4.06294 4.59441Z" clip-rule="evenodd"/><path fill="#DA610A" fill-rule="evenodd" d="M4.17671 3.19263C4.07052 3.19263 3.99507 3.26103 3.99507 3.364L3.99517 3.37536C3.98947 3.39252 3.98626 3.41164 3.98569 3.43305C3.98421 3.48783 4.00461 3.53352 4.04742 3.57543C4.05006 3.58753 4.05143 3.59755 4.05104 3.60324C4.04844 3.59431 4.03811 3.58681 4.01843 3.57255C3.99045 3.55227 3.94359 3.51829 3.87322 3.44701C3.77186 3.34434 3.69537 3.30416 3.60029 3.32013C3.57146 3.32497 3.54324 3.33512 3.50937 3.34869C3.45535 3.36814 3.40563 3.37266 3.31383 3.35513C3.05873 3.30644 2.77893 3.35422 2.47601 3.49459L2.58112 3.72142C2.83965 3.60162 3.06773 3.56267 3.26696 3.6007C3.40382 3.62682 3.49885 3.6182 3.59407 3.58391C3.6351 3.56847 3.63869 3.56718 3.6417 3.56667C3.63868 3.56718 3.64061 3.56904 3.65329 3.58123C3.66183 3.58943 3.67525 3.60233 3.69531 3.62265C3.72388 3.65159 3.75376 3.67779 3.78426 3.70162C3.72562 3.71738 3.72866 3.7282 3.73942 3.76658C3.74381 3.78221 3.74947 3.80243 3.75278 3.82942C3.76007 3.889 3.74796 3.91973 3.7584 3.93445C3.77006 3.95087 3.80979 3.94735 3.93588 3.94173C3.96982 3.94022 4.01571 3.93672 4.06867 3.93171C4.17254 3.92188 4.29008 3.90757 4.36231 3.89573C4.43247 3.88423 4.45112 3.88003 4.48054 3.85861L4.48055 3.85861C4.49072 3.84613 4.49943 3.83546 4.50664 3.82595C4.74655 3.7907 4.95989 3.76566 5.14973 3.74839C5.21779 3.74219 5.27249 3.73794 5.32545 3.73406C5.33171 3.734 5.33171 3.734 5.36249 3.72756L5.36249 3.72756C5.37595 3.72184 5.38151 3.71948 5.38339 3.71869L5.38337 3.71874C5.38422 3.71836 5.38472 3.71813 5.38339 3.71869L5.44467 3.57355L5.38136 3.49699C5.34364 3.48514 5.33948 3.48383 5.33526 3.48364C5.33474 3.48362 5.33421 3.48361 5.33362 3.48361C5.32868 3.48332 5.32688 3.48321 5.32507 3.48315C5.32404 3.48312 5.32301 3.4831 5.32139 3.48308L5.26406 3.483C5.22253 3.483 5.18973 3.47949 5.14234 3.47106L5.09827 3.46296C4.90336 3.4272 4.72259 3.4272 4.3392 3.48437L4.31777 3.468C4.37952 3.45727 4.45471 3.44998 4.53418 3.44575L4.53419 3.44575C4.58222 3.44351 4.58222 3.44351 4.60904 3.4428L4.62078 3.44252L4.61931 3.19264L4.60034 3.19263H4.17671ZM3.96962 3.91639L3.99353 3.91142L4.01707 3.9064L3.96962 3.91639Z" clip-rule="evenodd"/><path fill="#56C6F5" stroke="#E31D1C" stroke-width=".5" d="M3.96247 4.29047L4.00292 4.29711L4.04337 4.29047C4.53988 4.20907 4.86682 4.21857 5.05625 4.28211C5.27447 4.35531 5.51569 4.33459 5.76935 4.24916C5.68884 4.60805 5.64762 4.94725 5.64762 5.26603C5.64762 5.62944 5.71792 5.92302 5.78171 6.18058C5.78342 6.18749 5.78512 6.19437 5.78682 6.20122C5.84933 6.45343 5.90113 6.66245 5.90113 6.90231C5.90113 7.11762 5.82972 7.23071 5.72991 7.30138C5.61433 7.3832 5.42159 7.43533 5.13575 7.43533C4.73275 7.43533 4.35573 7.54387 4.00859 7.75621L4.00292 7.75214L3.99725 7.75621C3.65011 7.54387 3.27309 7.43533 2.87009 7.43533C2.58425 7.43533 2.39151 7.3832 2.27593 7.30138C2.17612 7.23071 2.10471 7.11762 2.10471 6.90231C2.10471 6.66245 2.15651 6.45343 2.21902 6.20122C2.22072 6.19437 2.22242 6.18749 2.22413 6.18058C2.28792 5.92302 2.35822 5.62944 2.35822 5.26603C2.35822 4.94725 2.317 4.60805 2.23649 4.24916C2.49015 4.33459 2.73137 4.35531 2.94959 4.28211C3.13902 4.21857 3.46596 4.20907 3.96247 4.29047Z"/><path fill="#F7FCFF" fill-rule="evenodd" d="M4.39239 5.11214L4.00668 4.76929L3.62097 5.11214H3.73525V5.3098L3.13525 5.68357V6.59786H3.02097V6.76929H3.13525H4.87811H5.02097V6.59786H4.87811V5.68357L4.24954 5.292V5.11214H4.39239Z" clip-rule="evenodd"/><path fill="#FBCD17" d="M3.97592 8.51022C4.50644 8.51022 4.87167 8.4523 5.05974 8.35357C5.10904 8.26973 5.19551 8.2224 5.28752 8.22581C5.70075 8.2411 6.02079 8.06702 6.27238 7.68441C6.54422 7.271 6.59885 6.68376 6.42167 5.91296L6.87148 5.80957C7.07448 6.69274 7.00819 7.40546 6.65801 7.93799C6.34423 8.41517 5.9164 8.67005 5.39426 8.68733C5.12759 8.88479 4.66025 8.97176 3.97592 8.97176C3.3139 8.97176 2.82304 8.84321 2.50822 8.57009C1.79328 8.40119 1.33895 8.11603 1.1603 7.69336C0.969871 7.2428 0.969871 6.61732 1.14751 5.81158L1.59822 5.91095C1.43928 6.63188 1.43928 7.1679 1.58543 7.51368C1.68741 7.75497 1.98373 7.95188 2.48575 8.0884L2.95216 8.18813L2.92977 8.30591C3.1573 8.4389 3.50504 8.51022 3.97592 8.51022Z"/><path stroke="#73BE4A" stroke-linecap="round" stroke-linejoin="round" stroke-width=".5" d="M2.35699 4.41187L2.61267 4.51472L2.48483 4.7805L2.84242 4.59618L2.81465 4.73264L2.73798 5.10926L2.8845 4.68039V5.05922L2.97402 4.68039L3.23987 4.76056L2.97402 4.59618L3.23987 4.51472"/><path fill="#FBCD17" fill-rule="evenodd" d="M2.84439 4.96851C2.98246 4.96851 3.09439 4.85658 3.09439 4.71851C3.09439 4.58043 2.98246 4.46851 2.84439 4.46851C2.70632 4.46851 2.59439 4.58043 2.59439 4.71851C2.59439 4.85658 2.70632 4.96851 2.84439 4.96851Z" clip-rule="evenodd"/><path fill="#F7FCFF" fill-rule="evenodd" d="M5.32051 4.93656C5.31642 4.76842 5.29774 4.38452 5.21243 4.38452C5.12662 4.38452 5.11357 4.77293 5.11192 4.93949C4.9642 4.98778 4.853 5.11489 4.853 5.11489H5.58877C5.58877 5.11489 5.47286 4.9824 5.32051 4.93656Z" clip-rule="evenodd"/></g></g></svg>

<svg xmlns="http://www.w3.org/2000/svg" fill="none" viewBox="0 0 16 12"><mask id="SXM_svg__a" width="16" height="12" x="0" y="0" maskUnits="userSpaceOnUse"><path fill="#fff" d="M0 0h16v12H0z"/></mask><g mask="url(#SXM_svg__a)"><path fill="#E31D1C" fill-rule="evenodd" d="M0 0v12h16V0H0z" clip-rule="evenodd"/><mask id="SXM_svg__b" width="16" height="12" x="0" y="0" maskUnits="userSpaceOnUse"><path fill="#fff" fill-rule="evenodd" d="M0 0v12h16V0H0z" clip-rule="evenodd"/></mask><g mask="url(#SXM_svg__b)"><path fill="#2E42A5" fill-rule="evenodd" d="M0 6v6h16V6H0z" clip-rule="evenodd"/></g><path fill="#F7FCFF" fill-rule="evenodd" d="M0-1v14l10-7L0-1z" clip-rule="evenodd"/><mask id="SXM_svg__c" width="10" height="14" x="0" y="-1" maskUnits="userSpaceOnUse"><path fill="#fff" fill-rule="evenodd" d="M0-1v14l10-7L0-1z" clip-rule="evenodd"/></mask><g mask="url(#SXM_svg__c)"><path fill="#FBCD17" fill-rule="evenodd" d="M4.063 4.594c.718 0 1.3-.357 1.3-.797 0-.44-.582-.797-1.3-.797-.718 0-1.3.357-1.3.797 0 .44.582.797 1.3.797z" clip-rule="evenodd"/><path fill="#DA610A" fill-rule="evenodd" d="M4.177 3.193c-.106 0-.182.068-.182.171v.011a.199.199 0 00-.01.058c0 .055.02.1.062.142a.117.117 0 01.004.028c-.003-.009-.013-.016-.033-.03a1.06 1.06 0 01-.145-.126c-.101-.103-.178-.143-.273-.127a.444.444 0 00-.09.029.335.335 0 01-.196.006c-.255-.048-.535 0-.838.14l.105.226c.259-.12.487-.158.686-.12a.58.58 0 00.375-.034c-.003 0-.001.002.011.014l.042.042a.925.925 0 00.09.079c-.06.015-.056.026-.046.065.005.015.01.035.014.062.007.06-.005.09.005.106.012.016.052.012.178.007a4.963 4.963 0 00.426-.046c.07-.012.09-.016.119-.037l.026-.033a11.767 11.767 0 01.818-.092c.007 0 .007 0 .037-.006.014-.006.02-.008.021-.01.001 0 .002 0 0 0l.062-.144-.064-.077a.208.208 0 00-.046-.013h-.071a.638.638 0 01-.122-.013l-.044-.008c-.195-.036-.375-.036-.759.021l-.021-.016a1.9 1.9 0 01.216-.022l.075-.003h.012l-.002-.25h-.442zm-.207.723l.024-.005.023-.005-.047.01z" clip-rule="evenodd"/><path fill="#56C6F5" stroke="#E31D1C" stroke-width=".5" d="M3.962 4.29l.041.007.04-.007c.497-.081.824-.072 1.013-.008.218.073.46.052.713-.033-.08.359-.121.698-.121 1.017 0 .363.07.657.134.914l.005.021c.062.252.114.461.114.701 0 .215-.071.329-.171.4-.116.081-.308.133-.594.133-.403 0-.78.109-1.127.321l-.006-.004-.006.004a2.127 2.127 0 00-1.127-.32c-.286 0-.478-.053-.594-.135-.1-.07-.171-.184-.171-.399 0-.24.052-.449.114-.7l.005-.022a3.6 3.6 0 00.134-.914c0-.319-.041-.658-.121-1.017.253.085.494.106.713.033.189-.064.516-.073 1.012.008z"/><path fill="#F7FCFF" fill-rule="evenodd" d="M4.392 5.112l-.385-.343-.386.343h.114v.198l-.6.374v.914h-.114v.171h2v-.171h-.143v-.914l-.628-.392v-.18h.142z" clip-rule="evenodd"/><path fill="#FBCD17" d="M3.976 8.51c.53 0 .896-.058 1.084-.156a.253.253 0 01.228-.128c.413.015.733-.159.984-.542.272-.413.327-1 .15-1.771l.45-.103c.203.883.136 1.595-.214 2.128-.314.477-.742.732-1.264.75-.266.197-.734.284-1.418.284-.662 0-1.153-.129-1.468-.402-.715-.169-1.169-.454-1.348-.877-.19-.45-.19-1.076-.012-1.881l.45.099c-.159.72-.159 1.257-.013 1.603.102.241.399.438.9.574l.467.1-.022.118c.227.133.575.204 1.046.204z"/><path stroke="#73BE4A" stroke-linecap="round" stroke-linejoin="round" stroke-width=".5" d="M2.357 4.412l.256.103-.128.266.357-.185-.027.137-.077.376.147-.428v.378l.089-.378.266.08-.266-.165.266-.081"/><path fill="#FBCD17" fill-rule="evenodd" d="M2.844 4.969a.25.25 0 100-.5.25.25 0 000 .5z" clip-rule="evenodd"/><path fill="#F7FCFF" fill-rule="evenodd" d="M5.32 4.937c-.004-.168-.022-.552-.108-.552-.085 0-.098.388-.1.555a.67.67 0 00-.259.175h.736s-.116-.132-.268-.178z" clip-rule="evenodd"/></g></g></svg>
